X:18
T:Steyrer Tanz in F, nr. 38 - Clarinetto oder Violin -
C:traditionell
R:Steirer
A:Hallstatt, Salzkammergut
B:Corpus Musicae Popularis Austriacae (COMPA), 5.Band: J.M.Schmalnauer " Tanz Musik", Verlag Boehlau, Wien 1996
S:manuscript des Johann Michael Schmalnauer um 1820
N:im der quelle in F
N:um1800
M:3/4
L:1/8
K:F
V:1
|: "^h:Ap"\
C2 F2 A2 | CcACFA | CBGCEG | CFAC F2 |\
C2 F2 A2 | CcACFA | CBGCEG | F4 C2 |
CBGCEG | CcACFA | CBGCEG | CFAF C2 |\
C2 F2 A2 | CcACFA | CBGCEG | F6 :|
V:2
|:\
F2 A2 c2 | AafAcf | GgeGce | Acfc A2 |\
F2 A2 c2 | AafAcf | GgeGce | A4 A2 |
GgeGce | AafAcf | GgeGce | Acfc A2 |\
F2 A2 c2 | AafAcf | GgeGce | A6 :|
